public/customer/5.svg

<svg width="250" height="108" viewBox="0 0 250 108" fill="none" xmlns="http://www.w3.org/2000/svg">
<path d="M49.907 21.6107C51.7754 20.594 54.0773 20.594 55.9457 21.6107L80.6848 35.0727L63.5785 44.5133C60.9306 42.0078 57.266 40.4572 53.2174 40.4572C49.0069 40.4572 45.212 42.1343 42.5437 44.8186L25.0251 35.1504L49.907 21.6107Z" fill="white" fill-opacity="0.6"/>
<path d="M39.2091 50.2712L21.6873 40.6012V67.6322L39.1438 57.9983C38.7854 56.8035 38.5937 55.5429 38.5937 54.2401C38.5937 52.8604 38.8088 51.528 39.2091 50.2712Z" fill="white" fill-opacity="0.6"/>
<path d="M42.3867 63.5014L25.3004 72.931L49.907 86.3208C51.7754 87.3373 54.0773 87.3373 55.9456 86.3208L80.4094 73.0084L63.7415 63.8099C61.0821 66.4074 57.3499 68.0233 53.2174 68.0233C48.9236 68.0233 45.062 66.2788 42.3867 63.5014Z" fill="white" fill-opacity="0.6"/>
<path d="M67.1618 58.4046L84.1642 67.7882C84.1649 67.7518 84.1655 67.7154 84.1655 67.6789V40.4446L67.09 49.8682C67.5773 51.2419 67.8412 52.712 67.8412 54.2401C67.8412 55.6917 67.6033 57.0908 67.1618 58.4046Z" fill="white" fill-opacity="0.6"/>
<path fill-rule="evenodd" clip-rule="evenodd" d="M104.404 69.7512C106.854 71.161 109.799 71.8661 113.236 71.8661C116.673 71.8661 119.617 71.161 122.068 69.7512C124.535 68.326 126.42 66.3465 127.725 63.8116C129.046 61.2771 129.707 58.3369 129.707 54.9924C129.707 51.6477 129.046 48.7079 127.725 46.1732C126.42 43.6384 124.535 41.666 122.068 40.2562C119.617 38.8313 116.673 38.1189 113.236 38.1189C109.799 38.1189 106.854 38.8313 104.404 40.2562C101.953 41.666 100.068 43.6384 98.747 46.1732C97.442 48.7079 96.7892 51.6477 96.7892 54.9924C96.7892 58.3369 97.442 61.2771 98.747 63.8116C100.068 66.3465 101.953 68.326 104.404 69.7512ZM118.989 65.3192C117.461 66.2942 115.543 66.774 113.236 66.7592C110.929 66.729 109.003 66.2265 107.46 65.2515C105.932 64.2765 104.786 62.9191 104.022 61.1792C103.258 59.4246 102.876 57.3622 102.876 54.9924C102.876 52.6226 103.258 50.5528 104.022 48.783C104.802 47.0131 105.955 45.6407 107.483 44.6658C109.011 43.6909 110.929 43.2109 113.236 43.2259C115.543 43.2559 117.461 43.7584 118.989 44.7333C120.533 45.7082 121.686 47.0731 122.45 48.828C123.23 50.5678 123.62 52.6226 123.62 54.9924C123.62 57.3622 123.23 59.432 122.45 61.202C121.686 62.9715 120.533 64.3443 118.989 65.3192Z" fill="white" fill-opacity="0.6"/>
<path d="M132.548 70.0529C132.548 70.6812 133.089 71.1911 133.756 71.1911H137.117C137.784 71.1911 138.325 70.6812 138.325 70.0529V58.8395C138.325 57.9095 138.444 57.0472 138.683 56.2523C138.922 55.4424 139.287 54.7225 139.781 54.0925C140.29 53.4626 140.943 52.9451 141.739 52.5401C142.534 52.0902 143.425 51.8277 144.412 51.7527C144.782 51.725 145.136 51.7167 145.473 51.7279C146.278 51.7545 147.062 51.1963 147.062 50.4375V47.8574C147.062 47.3009 146.635 46.8183 146.045 46.7873C145.604 46.7641 145.155 46.7694 144.698 46.8031C143.887 46.8481 143.091 46.9906 142.312 47.2306C141.548 47.4556 140.847 47.7706 140.211 48.1755C139.463 48.6104 138.818 49.1654 138.277 49.8404C138.042 50.1365 137.827 50.4478 137.633 50.7741V48.0314C137.633 47.4028 137.092 46.8931 136.425 46.8931H133.756C133.089 46.8931 132.548 47.4028 132.548 48.0314V70.0529Z" fill="white" fill-opacity="0.6"/>
<path fill-rule="evenodd" clip-rule="evenodd" d="M162.096 71.8662C159.582 71.8662 157.473 71.3033 155.77 70.1786C155.409 69.9402 155.067 69.6835 154.744 69.4086V70.0528C154.744 70.6812 154.203 71.1911 153.536 71.1911H150.867C150.2 71.1911 149.659 70.6812 149.659 70.0528V39.9321C149.659 39.3034 150.2 38.7938 150.867 38.7938H154.252C154.919 38.7938 155.46 39.3034 155.46 39.9321V48.0704C155.539 48.0145 155.618 47.9595 155.699 47.9056C157.37 46.7806 159.43 46.2181 161.881 46.2181C164.316 46.2181 166.425 46.7806 168.207 47.9056C170.005 49.0155 171.397 50.5378 172.384 52.4726C173.371 54.3925 173.864 56.5823 173.864 59.0421C173.864 61.4718 173.379 63.6545 172.408 65.589C171.437 67.5241 170.068 69.054 168.302 70.1786C166.536 71.3033 164.467 71.8662 162.096 71.8662ZM155.388 54.88C154.958 56.0648 154.744 57.4525 154.744 59.0421C154.744 60.6169 154.958 62.0045 155.388 63.2043C155.834 64.404 156.526 65.3414 157.465 66.0164C158.42 66.6767 159.669 67.0062 161.213 67.0062C162.708 67.0062 163.942 66.6539 164.912 65.9493C165.883 65.2441 166.599 64.2919 167.061 63.0916C167.538 61.877 167.777 60.527 167.777 59.0421C167.777 57.572 167.538 56.2373 167.061 55.0374C166.583 53.8225 165.844 52.8626 164.841 52.1577C163.838 51.4378 162.565 51.0778 161.022 51.0778C159.557 51.0778 158.364 51.4152 157.441 52.0902C156.518 52.7501 155.834 53.68 155.388 54.88Z" fill="white" fill-opacity="0.6"/>
<path d="M177.693 70.0528C177.693 70.6812 178.234 71.1911 178.901 71.1911H182.239C182.905 71.1911 183.446 70.6812 183.446 70.0528V48.0314C183.446 47.4028 182.905 46.8931 182.239 46.8931H178.901C178.234 46.8931 177.693 47.4028 177.693 48.0314V70.0528Z" fill="white" fill-opacity="0.6"/>
<path d="M203.797 70.2458C203.797 70.7939 203.383 71.2674 202.807 71.3465C201.446 71.5343 200.105 71.61 198.784 71.5736C197.161 71.5435 195.705 71.2663 194.416 70.741C193.127 70.2014 192.148 69.3539 191.48 68.1986C190.891 67.1491 190.58 66.0768 190.548 64.9817C190.517 63.8867 190.501 62.6494 190.501 61.2692V51.1453H187.03C186.363 51.1453 185.823 50.6357 185.823 50.007V48.0314C185.823 47.4028 186.363 46.8931 187.03 46.8931H190.501V41.282C190.501 40.6533 191.042 40.1437 191.708 40.1437H195.022C195.689 40.1437 196.23 40.6533 196.23 41.282V46.8931H202.589C203.256 46.8931 203.797 47.4028 203.797 48.0314V50.007C203.797 50.6357 203.256 51.1453 202.589 51.1453H196.23V60.9544C196.23 61.9294 196.238 62.7843 196.254 63.519C196.286 64.2544 196.452 64.8542 196.755 65.3192C197.328 66.2191 198.243 66.7216 199.5 66.8264C200.382 66.9003 201.352 66.8924 202.406 66.8036C203.141 66.7415 203.797 67.2709 203.797 67.9664V70.2458Z" fill="white" fill-opacity="0.6"/>
<path d="M210.518 70.2014C212.395 71.3112 214.662 71.8662 217.32 71.8662C220.2 71.8662 222.635 71.2059 224.624 69.8861C226.292 68.7671 227.54 67.2475 228.369 65.3278C228.633 64.7142 228.218 64.0483 227.533 63.9043L223.99 63.1576C223.388 63.0307 222.791 63.3591 222.519 63.8816C222.106 64.6738 221.574 65.3101 220.925 65.7916C220.05 66.4513 218.848 66.7814 217.32 66.7814C215.156 66.7814 213.525 66.0688 212.427 64.6442C211.329 63.2191 210.78 61.3517 210.78 59.0421C210.78 57.5572 211.01 56.2298 211.472 55.0599C211.934 53.89 212.65 52.9751 213.62 52.3151C214.591 51.6402 215.824 51.3027 217.32 51.3027C218.641 51.3027 219.819 51.6702 220.853 52.4051C221.604 52.928 222.2 53.6051 222.641 54.4365C222.929 54.9804 223.563 55.3174 224.185 55.1584L227.665 54.2701C228.298 54.1087 228.685 53.4986 228.468 52.9162C227.759 51.0149 226.542 49.4796 224.816 48.3105C222.795 46.9156 220.32 46.2181 217.392 46.2181C214.782 46.2181 212.53 46.7731 210.636 47.883C208.743 48.9779 207.279 50.4928 206.245 52.4277C205.226 54.3475 204.709 56.5523 204.693 59.0421C204.709 61.4872 205.21 63.6767 206.197 65.6118C207.199 67.5463 208.639 69.0762 210.518 70.2014Z" fill="white" fill-opacity="0.6"/>
<path d="M177.556 40.3458L179.176 38.8187C179.883 38.1519 181.031 38.1519 181.738 38.8187L183.358 40.3458C184.066 41.0126 184.066 42.0937 183.358 42.7605L181.738 44.2876C181.031 44.9544 179.883 44.9544 179.176 44.2876L177.556 42.7605C176.848 42.0937 176.848 41.0126 177.556 40.3458Z" fill="white" fill-opacity="0.6"/>
</svg>

<svg xmlns="http://www.w3.org/2000/svg" width="250" height="108" fill="none"><path fill="#fff" fill-opacity=".6" d="M49.907 21.61a6.36 6.36 0 0 1 6.039 0l24.739 13.463-17.107 9.44c-2.647-2.505-6.312-4.056-10.36-4.056-4.211 0-8.006 1.677-10.674 4.362L25.025 35.15l24.882-13.54ZM39.21 50.271l-17.523-9.67v27.031l17.457-9.634a13.056 13.056 0 0 1-.55-3.758c0-1.38.215-2.712.615-3.969ZM42.387 63.501 25.3 72.931l24.607 13.39a6.36 6.36 0 0 0 6.039 0l24.463-13.313-16.668-9.198c-2.659 2.597-6.391 4.213-10.524 4.213-4.293 0-8.155-1.744-10.83-4.522ZM67.162 58.405l17.002 9.383.001-.11V40.446L67.09 49.868c.487 1.374.751 2.844.751 4.372 0 1.452-.238 2.85-.68 4.165Z"/><path fill="#fff" fill-opacity=".6" fill-rule="evenodd" d="M104.404 69.751c2.45 1.41 5.395 2.115 8.832 2.115 3.437 0 6.381-.705 8.832-2.115 2.467-1.425 4.352-3.404 5.657-5.94 1.321-2.534 1.982-5.474 1.982-8.819 0-3.344-.661-6.284-1.982-8.819-1.305-2.535-3.19-4.507-5.657-5.917-2.451-1.425-5.395-2.137-8.832-2.137-3.437 0-6.382.712-8.832 2.137-2.451 1.41-4.336 3.382-5.657 5.917-1.305 2.535-1.958 5.475-1.958 8.82 0 3.344.653 6.284 1.958 8.819 1.321 2.535 3.206 4.514 5.657 5.94Zm14.585-4.432c-1.528.975-3.446 1.455-5.753 1.44-2.307-.03-4.233-.532-5.776-1.508-1.528-.975-2.674-2.332-3.438-4.072-.764-1.754-1.146-3.817-1.146-6.187s.382-4.44 1.146-6.209c.78-1.77 1.933-3.142 3.461-4.117 1.528-.975 3.446-1.455 5.753-1.44 2.307.03 4.225.532 5.753 1.507 1.544.975 2.697 2.34 3.461 4.095.78 1.74 1.17 3.795 1.17 6.164 0 2.37-.39 4.44-1.17 6.21-.764 1.77-1.917 3.142-3.461 4.117Z" clip-rule="evenodd"/><path fill="#fff" fill-opacity=".6" d="M132.548 70.053c0 .628.541 1.138 1.208 1.138h3.361c.667 0 1.208-.51 1.208-1.138V58.84c0-.93.119-1.793.358-2.588.239-.81.604-1.53 1.098-2.16.509-.63 1.162-1.147 1.958-1.552.795-.45 1.686-.712 2.673-.787.37-.028.724-.036 1.061-.025.805.026 1.589-.532 1.589-1.29v-2.58c0-.557-.427-1.04-1.017-1.07-.441-.024-.89-.019-1.347.015a9.95 9.95 0 0 0-2.386.428 8.207 8.207 0 0 0-2.101.944 6.907 6.907 0 0 0-1.934 1.665c-.235.296-.45.608-.644.934v-2.743c0-.628-.541-1.138-1.208-1.138h-2.669c-.667 0-1.208.51-1.208 1.138v22.022Z"/><path fill="#fff" fill-opacity=".6" fill-rule="evenodd" d="M162.096 71.866c-2.514 0-4.623-.563-6.326-1.687a10.558 10.558 0 0 1-1.026-.77v.644c0 .628-.541 1.138-1.208 1.138h-2.669c-.667 0-1.208-.51-1.208-1.138v-30.12c0-.63.541-1.14 1.208-1.14h3.385c.667 0 1.208.51 1.208 1.14v8.137a10.1 10.1 0 0 1 .239-.164c1.671-1.125 3.731-1.688 6.182-1.688 2.435 0 4.544.563 6.326 1.688 1.798 1.11 3.19 2.632 4.177 4.567.987 1.92 1.48 4.11 1.48 6.57 0 2.429-.485 4.611-1.456 6.546-.971 1.935-2.34 3.465-4.106 4.59-1.766 1.124-3.835 1.687-6.206 1.687Zm-6.708-16.986c-.43 1.185-.644 2.572-.644 4.162 0 1.575.214 2.962.644 4.162.446 1.2 1.138 2.137 2.077 2.812.955.66 2.204.99 3.748.99 1.495 0 2.729-.352 3.699-1.057.971-.705 1.687-1.657 2.149-2.857.477-1.215.716-2.565.716-4.05 0-1.47-.239-2.805-.716-4.005-.478-1.215-1.217-2.174-2.22-2.88-1.003-.72-2.276-1.08-3.819-1.08-1.465 0-2.658.338-3.581 1.013-.923.66-1.607 1.59-2.053 2.79Z" clip-rule="evenodd"/><path fill="#fff" fill-opacity=".6" d="M177.693 70.053c0 .628.541 1.138 1.208 1.138h3.338c.666 0 1.207-.51 1.207-1.138V48.03c0-.628-.541-1.138-1.207-1.138h-3.338c-.667 0-1.208.51-1.208 1.138v22.022ZM203.797 70.246c0 .548-.414 1.021-.99 1.1a24.463 24.463 0 0 1-4.023.228c-1.623-.03-3.079-.308-4.368-.833-1.289-.54-2.268-1.387-2.936-2.542-.589-1.05-.9-2.122-.932-3.217a132.34 132.34 0 0 1-.047-3.713V51.145h-3.471c-.667 0-1.207-.51-1.207-1.138v-1.976c0-.628.54-1.138 1.207-1.138h3.471v-5.611c0-.629.541-1.138 1.207-1.138h3.314c.667 0 1.208.51 1.208 1.138v5.611h6.359c.667 0 1.208.51 1.208 1.138v1.976c0 .629-.541 1.138-1.208 1.138h-6.359v9.81c0 .974.008 1.83.024 2.564.032.735.198 1.335.501 1.8.573.9 1.488 1.403 2.745 1.507.882.074 1.852.066 2.906-.022.735-.063 1.391.467 1.391 1.162v2.28ZM210.518 70.201c1.877 1.11 4.144 1.665 6.802 1.665 2.88 0 5.315-.66 7.304-1.98 1.668-1.119 2.916-2.638 3.745-4.558.264-.614-.151-1.28-.836-1.424l-3.543-.746c-.602-.127-1.199.201-1.471.724-.413.792-.945 1.428-1.594 1.91-.875.66-2.077.99-3.605.99-2.164 0-3.795-.713-4.893-2.138-1.098-1.425-1.647-3.292-1.647-5.602 0-1.485.23-2.812.692-3.982.462-1.17 1.178-2.085 2.148-2.745.971-.675 2.204-1.012 3.7-1.012 1.321 0 2.499.367 3.533 1.102a5.674 5.674 0 0 1 1.788 2.032c.288.543.922.88 1.544.721l3.48-.888c.633-.161 1.02-.771.803-1.354-.709-1.901-1.926-3.436-3.652-4.605-2.021-1.395-4.496-2.093-7.424-2.093-2.61 0-4.862.555-6.756 1.665a11.305 11.305 0 0 0-4.391 4.545c-1.019 1.92-1.536 4.124-1.552 6.614.016 2.445.517 4.635 1.504 6.57a11.323 11.323 0 0 0 4.321 4.59ZM177.556 40.346l1.62-1.527a1.89 1.89 0 0 1 2.562 0l1.62 1.527a1.638 1.638 0 0 1 0 2.415l-1.62 1.527a1.89 1.89 0 0 1-2.562 0l-1.62-1.527a1.638 1.638 0 0 1 0-2.415Z"/></svg>
